build/flags/Cyprus.svg

<svg xmlns="http://www.w3.org/2000/svg" fill="none" viewBox="0 0 28 28" focusable="false"><defs><filter id="Cyprus_svg__a"><feColorMatrix values="0 0 0 0 1 0 0 0 0 1 0 0 0 0 1 0 0 0 1 0"/></filter></defs><mask id="Cyprus_svg__b" width="28" height="20" x="0" y="4" maskUnits="userSpaceOnUse"><g filter="url(#Cyprus_svg__a)"><rect width="28" height="20" y="4" fill="#FFF" rx="3"/><rect width="27.5" height="19.5" x=".25" y="4.25" stroke="#F5F5F5" stroke-width=".5" rx="2.75"/></g></mask><path fill="none" d="M0 0H28V28H0z"/><rect width="28" height="20" y="4" fill="#FFF" rx="3"/><rect width="27.5" height="19.5" x=".25" y="4.25" stroke="#D6D8DD" stroke-width=".5" rx="2.75"/><g mask="url(#Cyprus_svg__b)"><path fill="#E7832C" fill-rule="evenodd" d="M20 7.33335C20.3631 7.1518 20.7316 7.56925 20.5064 7.90703L20.0672 8.56582C20.0228 8.63241 19.9657 8.68954 19.8991 8.73393L18.0549 9.9634C18.0184 9.98775 17.9843 10.0157 17.9533 10.0467L17.8047 10.1953C17.5444 10.4556 17.5444 10.8777 17.8047 11.1381L18.1952 11.5286C18.4556 11.789 18.4556 12.2111 18.1952 12.4714L17.6731 12.9936C17.4702 13.1965 17.1602 13.2468 16.9035 13.1185L16.5963 12.9648C16.2669 12.8002 15.8665 12.9337 15.7018 13.263L15.4568 13.753C15.3777 13.9112 15.2391 14.0314 15.0713 14.0873L13.4359 14.6325C13.368 14.6551 13.2968 14.6667 13.2251 14.6667L12.412 14.6667C12.1595 14.6667 11.9286 14.8094 11.8157 15.0352L11.6315 15.4037C11.4668 15.7331 11.0663 15.8665 10.737 15.7019L8.76341 14.7151C8.69932 14.683 8.64082 14.6409 8.59015 14.5902L7.52857 13.5286C7.40355 13.4036 7.33331 13.234 7.33331 13.0572L7.33331 12.4714C7.33331 12.2111 7.54437 12 7.80472 12L7.80472 12C7.92974 12 8.04965 11.9504 8.13805 11.8619L9.13805 10.8619C9.26307 10.7369 9.43264 10.6667 9.60946 10.6667L10.1861 10.6667C10.4731 10.6667 10.7279 10.4831 10.8186 10.2108L11.1472 9.22501C11.2535 8.90605 11.5807 8.71617 11.9104 8.78211L14.5196 9.30395C14.6164 9.32331 14.7163 9.32094 14.8121 9.297L17.2623 8.68444C17.3095 8.67264 17.3553 8.65571 17.3988 8.63396L18.6666 8.00002L20 7.33335L20 7.33335Z"/><path d="M20.0672 8.56582C20.0228 8.63241 19.9657 8.68954 19.8991 8.73393L18.0549 9.9634C18.0184 9.98775 17.9843 10.0157 17.9533 10.0467L17.8047 10.1953C17.5444 10.4556 17.5444 10.8777 17.8047 11.1381L18.1952 11.5286C18.4556 11.789 18.4556 12.2111 18.1952 12.4714L17.6731 12.9936C17.4702 13.1965 17.1602 13.2468 16.9035 13.1185L16.5963 12.9648C16.2669 12.8002 15.8665 12.9337 15.7018 13.263L15.4568 13.753C15.3777 13.9112 15.2391 14.0314 15.0713 14.0873L13.4359 14.6325C13.368 14.6551 13.2968 14.6667 13.2251 14.6667L12.412 14.6667C12.1595 14.6667 11.9286 14.8094 11.8157 15.0352L11.6315 15.4037C11.4668 15.7331 11.0663 15.8665 10.737 15.7019L8.76341 14.7151C8.69932 14.683 8.64082 14.6409 8.59015 14.5902L7.52857 13.5286C7.40355 13.4036 7.33331 13.234 7.33331 13.0572L7.33331 12.4714C7.33331 12.2111 7.54437 12 7.80472 12C7.92974 12 8.04965 11.9504 8.13805 11.8619L9.13805 10.8619C9.26307 10.7369 9.43264 10.6667 9.60946 10.6667L10.1861 10.6667C10.4731 10.6667 10.7279 10.4831 10.8186 10.2108L11.1472 9.22501C11.2535 8.90605 11.5807 8.71617 11.9104 8.78211L14.5196 9.30395C14.6164 9.32331 14.7163 9.32094 14.8121 9.297L17.2623 8.68444C17.3095 8.67264 17.3553 8.65571 17.3988 8.63396L18.6666 8.00002L20 7.33335C20.3631 7.1518 20.7316 7.56925 20.5064 7.90703L20.0672 8.56582Z"/><path fill="#445128" fill-rule="evenodd" d="M14 20C14.3682 20 14.6666 19.7015 14.6666 19.3334C14.6666 18.9652 14.3682 18.6667 14 18.6667C13.6318 18.6667 13.3333 18.9652 13.3333 19.3334C13.3333 19.7015 13.6318 20 14 20Z"/><path d="M14.6666 19.3334C14.6666 18.9652 14.3682 18.6667 14 18.6667C13.6318 18.6667 13.3333 18.9652 13.3333 19.3334C13.3333 19.7015 13.6318 20 14 20C14.3682 20 14.6666 19.7015 14.6666 19.3334Z"/><g style="mix-blend-mode:normal"><path fill="none" d="M16 18.6667C16 18.6667 18 18 18.6667 16.6667" opacity=".75"/><path stroke="#445128" stroke-linecap="round" stroke-width="1.333" d="M16 18.6667C16 18.6667 18 18 18.6667 16.6667" opacity=".75"/></g><g style="mix-blend-mode:normal"><path fill="none" d="M0 2C0 2 2 1.33333 2.66667 0" opacity=".75" transform="matrix(-1 0 0 1 12 16.667)"/><path stroke="#445128" stroke-linecap="round" stroke-width="1.333" d="M0 2C0 2 2 1.33333 2.66667 0" opacity=".75" transform="matrix(-1 0 0 1 12 16.667)"/></g></g></svg>

<svg xmlns="http://www.w3.org/2000/svg" fill="none" viewBox="0 0 28 28" focusable="false"><path fill="none" d="M0 0h28v28H0z"/><rect width="28" height="20" y="4" fill="#FFF" rx="3"/><rect width="27.5" height="19.5" x=".25" y="4.25" stroke="#D6D8DD" stroke-width=".5" rx="3"/><mask id="Cyprus_svg__a" width="28" height="20" x="0" y="4" mask-type="alpha" maskUnits="userSpaceOnUse"><rect width="28" height="20" y="4" fill="#FFF" rx="3"/><rect width="27.5" height="19.5" x=".25" y="4.25" stroke="#F5F5F5" stroke-width=".5" rx="3"/></mask><g mask="url(#Cyprus_svg__a)"><path fill="#E7832C" fill-rule="evenodd" d="M20 7.33c.36-.18.73.23.5.57l-.44.66c-.04.07-.1.12-.17.17l-1.84 1.23c-.04.02-.07.05-.1.08l-.15.15c-.26.26-.26.68 0 .94l.39.39c.26.26.26.69 0 .95l-.52.52c-.2.2-.51.25-.77.12l-.31-.15a.664.664 0 0 0-.89.3l-.25.49c-.08.16-.22.28-.38.33l-1.64.55q-.105.03-.21.03h-.81c-.26 0-.49.14-.6.37l-.18.37c-.17.33-.57.46-.9.3l-1.97-.99a.5.5 0 0 1-.17-.12l-1.07-1.07a.67.67 0 0 1-.19-.47v-.58c0-.26.21-.47.47-.47.12 0 .24-.05.33-.14l1-1c.13-.13.3-.2.47-.2h.58c.29 0 .54-.18.63-.45l.33-.99a.67.67 0 0 1 .77-.44l2.6.52c.1.02.2.02.3-.01l2.45-.61c.04-.01.09-.03.13-.05L18.66 8z"/><path d="M20.06 8.56c-.04.07-.1.12-.17.17l-1.84 1.23c-.04.02-.07.05-.1.08l-.15.15c-.26.26-.26.68 0 .94l.39.39c.26.26.26.69 0 .95l-.52.52c-.2.2-.51.25-.77.12l-.31-.15a.664.664 0 0 0-.89.3l-.25.49c-.08.16-.22.28-.38.33l-1.64.55q-.105.03-.21.03h-.81c-.26 0-.49.14-.6.37l-.18.37c-.17.33-.57.46-.9.3l-1.97-.99a.5.5 0 0 1-.17-.12l-1.07-1.07a.67.67 0 0 1-.19-.47v-.58c0-.26.21-.47.47-.47.12 0 .24-.05.33-.14l1-1c.13-.13.3-.2.47-.2h.58c.29 0 .54-.18.63-.45l.33-.99a.67.67 0 0 1 .77-.44l2.6.52c.1.02.2.02.3-.01l2.45-.61c.04-.01.09-.03.13-.05L18.66 8 20 7.33c.36-.18.73.23.5.57z"/></g><g mask="url(#Cyprus_svg__a)"><path fill="#445128" fill-rule="evenodd" d="M14 20c.36 0 .66-.3.66-.67s-.3-.67-.66-.67A.67.67 0 0 0 14 20"/><path d="M14.66 19.33c0-.37-.3-.67-.66-.67A.67.67 0 0 0 14 20c.36 0 .66-.3.66-.67"/></g><g mask="url(#Cyprus_svg__a)" opacity=".75"><path fill="none" d="m16.22 19.27-.01.02a.66.66 0 0 1-.85-.42.66.66 0 0 1 .42-.84l.03.01zm1.85-2.88v-.03c.16-.33.56-.46.89-.29.33.16.46.56.3.89l-.03.01z"/><path stroke="#445128" stroke-linecap="round" stroke-width="1.333" d="M16 18.66s2-.66 2.66-2"/></g><g mask="url(#Cyprus_svg__a)" opacity=".75"><path fill="none" d="m11.77 19.27.01.02c.36.12.73-.06.85-.42a.66.66 0 0 0-.42-.84l-.03.01zm-1.85-2.88v-.03a.65.65 0 0 0-.89-.29c-.33.16-.46.56-.3.89l.03.01z"/><path stroke="#445128" stroke-linecap="round" stroke-width="1.333" d="M12 18.66s-2-.66-2.67-2"/></g></svg>
